X:1
T:The Dove, She is a Pretty Bird
M:3/4
L:1/4
K:Bb
 F| F B B/2c/2| F/2G/2 _A B| _A C F| B,2 B,| B, _A, B,| C F F| F B, C|\
 B,3-| B,2||
